X: 13
T:A Camposa
M:6/8
L:1/8
Q:200
C:X.Romero Suarez
S:Rep. "Os Rosales"
R:Muiñeira
B:Os Segredos da Gaita. FOXO
K:C
GAG |: ECE DED | CEG cBA |
BAG FED | EDC GAG | ECE DED |CEG cBA|
BAG FED  |1 C3 GAG :|2 C3 CFD |: (3EFE C CFD |
(3EFE C CFD | ECD B,CD |EDC CFD |
(3EFE C CFD | (3EFE C CFD | ECD B,DB, |1
C3 CFD :|2 C3 CFD |: ECD B,FD | ECD B,FD |
ECD B,CD | EDC CFD |ECD B,FD |
ECD B,FD ECD B,DB, |1 C3 CFD :|2 C3 D3 |
_E3 F3 | G3 c3 | _B3 _A3 | c3 G3 | _A3 G3 | F3 _E3 |
D3 _E3 | C3 D3 | _E3 F3| G3 c3 | _B3 _A3 | G3 F3 |
_A3 G3 | F3 _E3 | D3 _E3 | C3 D3 | _E3 F3 |
D3 _E3 | F3 _A_BA | G6- | G3- G2(3AGF |
G6- | G6- | G3  ||

